X: 175
M: 6/8
L: 1/8
K: G
dBg ded | cAa cdc | BGB cAc | BGB TA2(G//A//B//c//) |\
dBe Te3 | cAd Td3 | BGB cAc | AGF G2 :|

